images/icon/icon_copy.svg

<?xml version="1.0" encoding="utf-8"?>
<!-- Generator: Adobe Illustrator 16.0.0, SVG Export Plug-In . SVG Version: 6.00 Build 0)  -->
<!DOCTYPE svg PUBLIC "-//W3C//DTD SVG 1.1//EN" "http://www.w3.org/Graphics/SVG/1.1/DTD/svg11.dtd">
<svg version="1.1" id="圖層_1" xmlns="http://www.w3.org/2000/svg" xmlns:xlink="http://www.w3.org/1999/xlink" x="0px" y="0px"
	 width="28.35px" height="28.35px" viewBox="0 0 28.35 28.35" enable-background="new 0 0 28.35 28.35" xml:space="preserve">
<path fill="#040000" d="M19.318,1.603H5.603c-1.263,0-2.286,1.023-2.286,2.286v16.002h2.286V3.889h13.716V1.603z M22.746,6.174
	H10.174c-1.263,0-2.286,1.023-2.286,2.286v16.002c0,1.263,1.023,2.285,2.286,2.285h12.572c1.264,0,2.287-1.022,2.287-2.285V8.46
	C25.033,7.197,24.01,6.174,22.746,6.174z M22.746,24.462H10.174V8.46h12.572V24.462z"/>
</svg>

<svg id="圖層_1" data-name="圖層 1" xmlns="http://www.w3.org/2000/svg" viewBox="0 0 21.72 25.14"><defs><style>.cls-1{fill:#fff;}</style></defs><path class="cls-1" d="M19.32,1.6H5.6A2.29,2.29,0,0,0,3.32,3.89v16H5.6v-16H19.32V1.6Zm3.43,4.57H10.17A2.29,2.29,0,0,0,7.89,8.46v16a2.28,2.28,0,0,0,2.28,2.29H22.75A2.28,2.28,0,0,0,25,24.46v-16A2.29,2.29,0,0,0,22.75,6.17Zm0,18.29H10.17v-16H22.75Z" transform="translate(-3.32 -1.6)"/></svg>
